; generated by PrusaSlicer 2.2.0-rc5+linux-x64 on 2020-09-09 at 13:51:20 UTC

; 

; external perimeters extrusion width = 0.45mm
; perimeters extrusion width = 0.45mm
; infill extrusion width = 0.45mm
; solid infill extrusion width = 0.45mm
; top infill extrusion width = 0.15mm
; support material extrusion width = 0.40mm
; first layer extrusion width = 0.15mm

M73 P0 R143
M201 X9000 Y9000 Z500 E10000 ; sets maximum accelerations, mm/sec^2
M203 X500 Y500 Z12 E120 ; sets maximum feedrates, mm/sec
M204 P1500 R1500 T1500 ; sets acceleration (P, T) and retract acceleration (R), mm/sec^2
M205 X10.00 Y10.00 Z0.20 E2.50 ; sets the jerk limits, mm/sec
M205 S0 T0 ; sets the minimum extruding and travel feed rate, mm/sec
M107
M190 S80 ; set bed temperature and wait for it to be reached
M104 S238 ; set temperature
G28 ; home all axes
G1 Z5 F5000 ; lift nozzle
M109 S238 ; set temperature and wait for it to be reached
G21 ; set units to millimeters
G90 ; use absolute coordinates
M82 ; use absolute distances for extrusion
G92 E0
M900 K30 ; Filament gcode
G1 Z0.200 F7800.000
G1 E-2.00000 F2400.00000
M73 P0 R143
G92 E0
G1 X136.984 Y60.734 F7800.000
G1 E2.00000 F2400.00000
G1 F1800.000
G1 X137.837 Y59.057 E2.01641
G1 X138.708 Y57.765 E2.03001
G1 X139.562 Y56.746 E2.04161
G1 X140.546 Y55.779 E2.05365
G1 X141.601 Y54.930 E2.06547
G1 X142.826 Y54.134 E2.07822
G1 X144.370 Y53.364 E2.09327
G1 X145.659 Y52.892 E2.10525
G1 X147.057 Y52.534 E2.11784
G1 X148.384 Y52.334 E2.12955
G1 X149.786 Y52.262 E2.14180
G1 X189.805 Y52.262 E2.49099
G1 X191.973 Y52.433 E2.50997
G1 X193.178 Y52.678 E2.52069
G1 X194.427 Y53.053 E2.53208
G1 X196.421 Y53.937 E2.55111
G1 X197.476 Y54.569 E2.56184
G1 X198.471 Y55.291 E2.57256
G1 X200.112 Y56.829 E2.59219
G1 X200.909 Y57.790 E2.60308
G1 X201.596 Y58.787 E2.61365
G1 X202.608 Y60.719 E2.63268
G1 X203.301 Y62.774 E2.65160
G1 X203.639 Y64.630 E2.66806
G1 X208.705 Y110.142 E3.06763
G1 X208.718 Y111.409 E3.07869
G1 X208.616 Y112.661 E3.08965
G1 X208.153 Y114.868 E3.10933
G1 X207.721 Y116.108 E3.12078
G1 X207.189 Y117.272 E3.13195
G1 X205.965 Y119.235 E3.15214
G1 X204.819 Y120.584 E3.16759
G1 X203.790 Y121.548 E3.17988
G1 X202.618 Y122.437 E3.19272
G1 X201.370 Y123.192 E3.20545
G1 X200.049 Y123.811 E3.21818
G1 X198.339 Y124.381 E3.23391
G1 X196.873 Y124.684 E3.24697
G1 X195.427 Y124.825 E3.25964
G1 X144.137 Y124.824 E3.70718
G1 X142.079 Y124.571 E3.72528
G1 X140.071 Y124.012 E3.74346
G1 X138.182 Y123.167 E3.76152
G1 X136.391 Y122.015 E3.78010
G1 X135.002 Y120.811 E3.79615
G1 X133.987 Y119.692 E3.80933
G1 X133.092 Y118.456 E3.82264
G1 X132.207 Y116.864 E3.83854
G1 X131.613 Y115.395 E3.85236
G1 X131.139 Y113.628 E3.86833
G1 X130.923 Y112.118 E3.88164
G1 X130.875 Y110.589 E3.89499
G1 X130.956 Y109.372 E3.90562
G1 X136.034 Y64.063 E4.30345
G1 X136.364 Y62.516 E4.31725
G1 X136.964 Y60.790 E4.33319
G1 X137.065 Y60.825 F7800.000
G1 F1800.000
G1 X137.929 Y59.111 E4.34995
G1 X138.797 Y57.824 E4.36349
G1 X139.641 Y56.817 E4.37495
G1 X140.618 Y55.858 E4.38690
G1 X141.665 Y55.015 E4.39863
G1 X142.881 Y54.226 E4.41128
G1 X144.413 Y53.462 E4.42621
G1 X145.693 Y52.994 E4.43810
G1 X147.079 Y52.639 E4.45059
G1 X148.396 Y52.440 E4.46221
G1 X149.788 Y52.369 E4.47437
G1 X189.805 Y52.369 E4.82355
G1 X191.112 Y52.431 E4.83497
G1 X192.320 Y52.602 E4.84561
G1 X194.411 Y53.161 E4.86449
G1 X196.387 Y54.041 E4.88337
G1 X197.439 Y54.672 E4.89407
G1 X198.478 Y55.434 E4.90532
G1 X200.063 Y56.935 E4.92436
G1 X200.843 Y57.880 E4.93506
G1 X201.566 Y58.940 E4.94625
G1 X202.555 Y60.871 E4.96518
G1 X202.977 Y62.023 E4.97588
G1 X203.288 Y63.183 E4.98637
G1 X203.534 Y64.650 E4.99934
G1 X208.600 Y110.180 E5.39907
G1 X208.611 Y111.412 E5.40983
G1 X208.506 Y112.680 E5.42093
G1 X208.023 Y114.928 E5.44099
G1 X207.605 Y116.109 E5.45192
G1 X207.045 Y117.318 E5.46355
G1 X206.369 Y118.471 E5.47521
G1 X205.654 Y119.464 E5.48589
G1 X204.668 Y120.587 E5.49893
G1 X203.644 Y121.531 E5.51108
G1 X202.521 Y122.374 E5.52333
G1 X201.241 Y123.138 E5.53634
G1 X199.640 Y123.856 E5.55164
G1 X198.286 Y124.285 E5.56404
G1 X196.850 Y124.580 E5.57683
G1 X195.396 Y124.719 E5.58958
G1 X144.141 Y124.717 E6.03681
G1 X142.099 Y124.466 E6.05477
G1 X140.112 Y123.913 E6.07276
G1 X138.237 Y123.075 E6.09068
G1 X136.454 Y121.929 E6.10917
G1 X135.076 Y120.733 E6.12509
G1 X134.069 Y119.623 E6.13817
G1 X133.181 Y118.397 E6.15138
G1 X132.303 Y116.817 E6.16716
G1 X131.714 Y115.360 E6.18087
G1 X131.244 Y113.605 E6.19672
G1 X131.029 Y112.107 E6.20992
G1 X130.982 Y110.590 E6.22317
G1 X131.062 Y109.383 E6.23372
G1 X136.139 Y64.085 E6.63146
G1 X136.466 Y62.549 E6.64515
G1 X137.045 Y60.882 E6.66055
G1 X137.146 Y60.917 F7800.000
G1 F1800.000
G1 X137.179 Y60.821 E6.66144
G1 X138.022 Y59.164 E6.67766
G1 X138.883 Y57.887 E6.69110
G1 X139.721 Y56.889 E6.70247
G1 X140.690 Y55.938 E6.71432
G1 X141.729 Y55.101 E6.72596
G1 X142.936 Y54.318 E6.73851
G1 X144.462 Y53.558 E6.75338
G1 X145.726 Y53.095 E6.76513
G1 X147.101 Y52.744 E6.77752
G1 X148.414 Y52.546 E6.78910
G1 X149.789 Y52.476 E6.80112
G1 X189.805 Y52.476 E7.15028
G1 X191.103 Y52.538 E7.16162
G1 X192.302 Y52.707 E7.17218
G1 X194.376 Y53.262 E7.19092
G1 X196.337 Y54.136 E7.20965
G1 X197.376 Y54.759 E7.22022
G1 X198.412 Y55.518 E7.23143
G1 X199.984 Y57.007 E7.25032
G1 X200.758 Y57.946 E7.26094
G1 X201.475 Y58.997 E7.27204
G1 X202.457 Y60.914 E7.29083
G1 X202.875 Y62.056 E7.30145
G1 X203.185 Y63.214 E7.31191
G1 X203.427 Y64.657 E7.32467
G1 X208.493 Y110.187 E7.72440
G1 X208.504 Y111.410 E7.73507
G1 X208.399 Y112.667 E7.74608
G1 X207.920 Y114.898 E7.76599
G1 X207.506 Y116.070 E7.77684
G1 X206.950 Y117.270 E7.78837
G1 X206.279 Y118.413 E7.79994
G1 X205.566 Y119.404 E7.81059
G1 X204.586 Y120.518 E7.82354
G1 X203.570 Y121.453 E7.83559
G1 X202.455 Y122.289 E7.84775
G1 X201.190 Y123.044 E7.86060
G1 X199.602 Y123.756 E7.87579
G1 X198.258 Y124.182 E7.88809
G1 X196.833 Y124.474 E7.90078
G1 X195.391 Y124.612 E7.91343
G1 X144.151 Y124.610 E8.36052
G1 X142.124 Y124.362 E8.37834
G1 X140.147 Y123.812 E8.39624
G1 X138.282 Y122.978 E8.41408
G1 X136.513 Y121.839 E8.43243
G1 X135.151 Y120.656 E8.44817
G1 X134.151 Y119.555 E8.46115
G1 X133.270 Y118.338 E8.47426
G1 X132.400 Y116.770 E8.48991
G1 X131.817 Y115.330 E8.50346
G1 X131.348 Y113.583 E8.51925
G1 X131.136 Y112.097 E8.53235
G1 X131.089 Y110.588 E8.54552
G1 X131.169 Y109.393 E8.55596
G1 X136.245 Y64.100 E8.95366
G1 X136.570 Y62.576 E8.96725
G1 X137.126 Y60.974 E8.98205
G1 X137.228 Y61.009 F7800.000
G1 F1800.000
G1 X137.281 Y60.856 E8.98346
G1 X138.118 Y59.213 E8.99955
G1 X138.973 Y57.946 E9.01289
G1 X139.817 Y56.943 E9.02433
G1 X140.827 Y55.961 E9.03662
G1 X141.873 Y55.131 E9.04827
G1 X143.312 Y54.230 E9.06309
G1 X144.594 Y53.618 E9.07548
G1 X145.840 Y53.171 E9.08703
G1 X147.148 Y52.844 E9.09879
G1 X148.432 Y52.652 E9.11013
G1 X149.791 Y52.583 E9.12199
G1 X189.805 Y52.583 E9.47114
G1 X191.088 Y52.644 E9.48235
G1 X192.284 Y52.813 E9.49289
G1 X194.342 Y53.364 E9.51148
G1 X196.287 Y54.231 E9.53006
G1 X197.317 Y54.849 E9.54055
G1 X198.346 Y55.602 E9.55167
G1 X199.901 Y57.075 E9.57036
G1 X200.670 Y58.006 E9.58090
G1 X201.385 Y59.054 E9.59197
G1 X202.356 Y60.950 E9.61055
G1 X202.772 Y62.084 E9.62109
G1 X203.081 Y63.239 E9.63152
G1 X203.321 Y64.670 E9.64418
G1 X208.386 Y110.187 E10.04380
G1 X208.396 Y111.407 E10.05445
G1 X208.293 Y112.655 E10.06537
G1 X207.819 Y114.862 E10.08507
G1 X207.408 Y116.025 E10.09584
G1 X206.857 Y117.216 E10.10728
G1 X206.189 Y118.356 E10.11881
G1 X205.477 Y119.343 E10.12944
G1 X204.509 Y120.444 E10.14222
G1 X203.501 Y121.372 E10.15418
G1 X202.399 Y122.197 E10.16619
G1 X201.139 Y122.950 E10.17900
G1 X199.563 Y123.656 E10.19407
G1 X198.229 Y124.078 E10.20627
G1 X196.815 Y124.368 E10.21887
G1 X195.385 Y124.505 E10.23141
G1 X144.155 Y124.503 E10.67842
G1 X142.144 Y124.257 E10.69610
G1 X140.182 Y123.711 E10.71386
G1 X138.332 Y122.883 E10.73156
G1 X136.577 Y121.753 E10.74977
G1 X135.221 Y120.575 E10.76544
G1 X134.222 Y119.472 E10.77843
G1 X133.350 Y118.264 E10.79143
G1 X132.459 Y116.646 E10.80754
G1 X131.905 Y115.254 E10.82062
G1 X131.432 Y113.459 E10.83681
G1 X131.234 Y111.976 E10.84986
G1 X131.210 Y110.221 E10.86518
G1 X136.352 Y64.109 E11.27003
G1 X136.674 Y62.603 E11.28347
G1 X137.208 Y61.066 E11.29767
G1 E9.29767 F2400.00000
G92 E0
G1 X165.296 Y89.298 F7800.000
G1 E2.00000 F2400.00000
G1 F787.500
G1 X165.756 Y88.872 E2.00547
G1 X166.256 Y88.493 E2.01094
G1 X166.791 Y88.166 E2.01641
G1 X167.356 Y87.894 E2.02188
G1 X167.945 Y87.680 E2.02736
G1 X168.553 Y87.525 E2.03283
G1 X169.169 Y87.432 E2.03827
G1 X169.495 Y87.408 E2.04112
G1 X170.112 Y87.408 E2.04651
G1 X170.736 Y87.471 E2.05198
G1 X171.351 Y87.595 E2.05745
G1 X171.950 Y87.780 E2.06292
G1 X172.528 Y88.023 E2.06839
G1 X173.078 Y88.323 E2.07386
G1 X173.596 Y88.676 E2.07933
G1 X174.077 Y89.079 E2.08480
G1 X174.515 Y89.528 E2.09027
G1 X174.905 Y90.018 E2.09574
G1 X175.246 Y90.545 E2.10122
G1 X175.532 Y91.103 E2.10669
G1 X175.761 Y91.687 E2.11216
G1 X175.931 Y92.290 E2.11763
G1 X176.039 Y92.908 E2.12310
G1 X176.086 Y93.533 E2.12857
G1 X176.071 Y94.160 E2.13404
G1 X175.993 Y94.782 E2.13951
G1 X175.853 Y95.393 E2.14498
G1 X175.654 Y95.988 E2.15046
G1 X175.396 Y96.559 E2.15593
G1 X175.082 Y97.102 E2.16140
G1 X174.716 Y97.611 E2.16687
G1 X174.301 Y98.082 E2.17234
G1 X173.842 Y98.508 E2.17781
G1 X173.342 Y98.887 E2.18328
G1 X172.810 Y99.212 E2.18872
G1 X172.519 Y99.361 E2.19157
G1 X171.950 Y99.600 E2.19696
G1 X171.351 Y99.785 E2.20243
G1 X170.736 Y99.909 E2.20790
G1 X170.112 Y99.972 E2.21337
G1 X169.485 Y99.972 E2.21884
G1 X168.861 Y99.909 E2.22432
G1 X168.247 Y99.785 E2.22979
G1 X167.648 Y99.600 E2.23526
G1 X167.070 Y99.357 E2.24073
G1 X166.519 Y99.057 E2.24620
G1 X166.001 Y98.704 E2.25167
G1 X165.521 Y98.300 E2.25714
G1 X165.083 Y97.852 E2.26261
G1 X164.692 Y97.361 E2.26808
G1 X164.352 Y96.835 E2.27356
G1 X164.066 Y96.277 E2.27903
G1 X163.837 Y95.693 E2.28450
G1 X163.667 Y95.090 E2.28997
G1 X163.558 Y94.472 E2.29544
G1 X163.511 Y93.847 E2.30091
G1 X163.527 Y93.220 E2.30638
G1 X163.605 Y92.598 E2.31185
G1 X163.744 Y91.987 E2.31732
G1 X163.944 Y91.392 E2.32280
G1 X164.202 Y90.821 E2.32827
G1 X164.515 Y90.278 E2.33374
G1 X164.881 Y89.769 E2.33921
G1 X165.257 Y89.343 E2.34416
G1 X165.337 Y89.414 F7800.000
G1 F787.500
G1 X165.825 Y88.954 E2.35001
G1 X166.316 Y88.582 E2.35539
G1 X166.842 Y88.261 E2.36076
G1 X167.397 Y87.993 E2.36614
G1 X167.976 Y87.782 E2.37152
G1 X168.574 Y87.630 E2.37690
G1 X169.181 Y87.539 E2.38226
G1 X169.499 Y87.515 E2.38504
G1 X170.107 Y87.515 E2.39034
G1 X170.720 Y87.577 E2.39572
G1 X171.324 Y87.699 E2.40110
G1 X171.913 Y87.880 E2.40648
G1 X172.481 Y88.120 E2.41185
G1 X173.022 Y88.415 E2.41723
G1 X173.532 Y88.762 E2.42261
G1 X174.004 Y89.158 E2.42799
G1 X174.434 Y89.599 E2.43337
G1 X174.818 Y90.081 E2.43874
G1 X175.153 Y90.599 E2.44412
G1 X175.434 Y91.147 E2.44950
G1 X175.659 Y91.721 E2.45488
G1 X175.826 Y92.314 E2.46025
G1 X175.933 Y92.921 E2.46563
G1 X175.979 Y93.536 E2.47101
G1 X175.964 Y94.152 E2.47639
G1 X175.887 Y94.764 E2.48177
G1 X175.750 Y95.364 E2.48714
G1 X175.554 Y95.949 E2.49252
G1 X175.300 Y96.510 E2.49790
G1 X174.992 Y97.044 E2.50328
G1 X174.632 Y97.545 E2.50866
G1 X174.224 Y98.007 E2.51403
G1 X173.773 Y98.426 E2.51941
G1 X173.281 Y98.798 E2.52479
G1 X172.757 Y99.118 E2.53015
G1 X172.474 Y99.263 E2.53293
G1 X171.913 Y99.499 E2.53823
G1 X171.324 Y99.681 E2.54361
G1 X170.720 Y99.803 E2.54899
G1 X170.107 Y99.865 E2.55437
G1 X169.491 Y99.865 E2.55975
G1 X168.877 Y99.803 E2.56512
G1 X168.273 Y99.681 E2.57050
G1 X167.684 Y99.499 E2.57588
G1 X167.116 Y99.260 E2.58126
G1 X166.575 Y98.965 E2.58663
G1 X166.066 Y98.618 E2.59201
G1 X165.594 Y98.222 E2.59739
G1 X165.163 Y97.781 E2.60277
G1 X164.779 Y97.299 E2.60815
G1 X164.445 Y96.781 E2.61352
G1 X164.164 Y96.233 E2.61890
G1 X163.938 Y95.659 E2.62428
G1 X163.771 Y95.066 E2.62966
G1 X163.664 Y94.459 E2.63503
G1 X163.618 Y93.844 E2.64041
G1 X163.634 Y93.228 E2.64579
G1 X163.710 Y92.616 E2.65117
G1 X163.848 Y92.016 E2.65655
G1 X164.044 Y91.431 E2.66192
G1 X164.297 Y90.870 E2.66730
G1 X164.605 Y90.336 E2.67268
G1 X164.965 Y89.835 E2.67806
G1 X165.297 Y89.459 E2.68243
G1 X165.377 Y89.530 F7800.000
G1 F787.500
G1 X165.894 Y89.036 E2.68867
G1 X166.377 Y88.670 E2.69395
G1 X166.893 Y88.355 E2.69924
G1 X167.439 Y88.092 E2.70452
G1 X168.008 Y87.885 E2.70981
G1 X168.595 Y87.735 E2.71509
G1 X169.193 Y87.645 E2.72037
G1 X169.503 Y87.622 E2.72308
G1 X170.102 Y87.622 E2.72830
G1 X170.704 Y87.683 E2.73359
G1 X171.298 Y87.803 E2.73887
G1 X171.877 Y87.981 E2.74416
G1 X172.435 Y88.216 E2.74944
G1 X172.967 Y88.506 E2.75473
G1 X173.467 Y88.847 E2.76001
G1 X173.931 Y89.237 E2.76530
G1 X174.354 Y89.670 E2.77058
G1 X174.731 Y90.144 E2.77587
G1 X175.060 Y90.652 E2.78115
G1 X175.336 Y91.191 E2.78643
G1 X175.558 Y91.755 E2.79172
G1 X175.722 Y92.338 E2.79700
G1 X175.827 Y92.935 E2.80229
G1 X175.872 Y93.538 E2.80757
G1 X175.857 Y94.144 E2.81286
G1 X175.782 Y94.745 E2.81814
G1 X175.647 Y95.335 E2.82343
G1 X175.454 Y95.909 E2.82871
G1 X175.205 Y96.461 E2.83400
G1 X174.902 Y96.986 E2.83928
G1 X174.548 Y97.478 E2.84456
G1 X174.148 Y97.932 E2.84985
G1 X173.704 Y98.344 E2.85513
G1 X173.221 Y98.709 E2.86042
G1 X172.705 Y99.025 E2.86570
G1 X172.428 Y99.166 E2.86841
G1 X171.877 Y99.399 E2.87363
G1 X171.298 Y99.577 E2.87892
G1 X170.704 Y99.697 E2.88420
G1 X170.102 Y99.757 E2.88948
G1 X169.496 Y99.757 E2.89477
G1 X168.893 Y99.697 E2.90005
G1 X168.300 Y99.577 E2.90534
G1 X167.721 Y99.399 E2.91062
G1 X167.163 Y99.163 E2.91591
G1 X166.631 Y98.874 E2.92119
G1 X166.131 Y98.533 E2.92648
G1 X165.667 Y98.143 E2.93176
G1 X165.244 Y97.710 E2.93705
G1 X164.866 Y97.236 E2.94233
G1 X164.538 Y96.728 E2.94761
G1 X164.261 Y96.189 E2.95290
G1 X164.040 Y95.625 E2.95818
G1 X163.876 Y95.042 E2.96347
G1 X163.771 Y94.445 E2.96875
G1 X163.726 Y93.841 E2.97404
G1 X163.741 Y93.236 E2.97932
G1 X163.816 Y92.635 E2.98461
G1 X163.951 Y92.045 E2.98989
G1 X164.144 Y91.470 E2.99518
G1 X164.393 Y90.918 E3.00046
G1 X164.696 Y90.394 E3.00574
G1 X165.049 Y89.902 E3.01103
G1 X165.338 Y89.575 E3.01484
G1 X165.265 Y89.146 F7800.000
G1 E1.01484 F2400.00000
G92 E0
G1 X154.478 Y94.707 F7800.000
G1 E2.00000 F2400.00000
G1 F787.500
G1 X154.629 Y95.158 E2.00415
G1 X154.689 Y95.630 E2.00831
G1 X154.653 Y96.105 E2.01246
G1 X154.524 Y96.563 E2.01662
G1 X154.309 Y96.984 E2.02074
G1 X154.087 Y97.276 E2.02394
G1 X153.742 Y97.596 E2.02804
G1 X153.336 Y97.844 E2.03219
G1 X152.889 Y98.007 E2.03635
G1 X152.418 Y98.078 E2.04050
G1 X151.942 Y98.054 E2.04466
G1 X151.481 Y97.936 E2.04881
G1 X151.052 Y97.730 E2.05296
G1 X150.673 Y97.442 E2.05712
G1 X150.358 Y97.085 E2.06127
G1 X150.120 Y96.673 E2.06542
G1 X149.968 Y96.222 E2.06958
G1 X149.909 Y95.750 E2.07373
G1 X149.944 Y95.275 E2.07789
G1 X150.073 Y94.817 E2.08204
G1 X150.291 Y94.393 E2.08619
G1 X150.587 Y94.021 E2.09035
G1 X150.952 Y93.715 E2.09450
G1 X151.370 Y93.487 E2.09866
G1 X151.822 Y93.348 E2.10278
G1 X152.185 Y93.302 E2.10598
G1 X152.655 Y93.326 E2.11008
G1 X153.116 Y93.444 E2.11423
G1 X153.545 Y93.650 E2.11839
G1 X153.925 Y93.938 E2.12254
G1 X154.240 Y94.294 E2.12670
G1 X154.448 Y94.655 E2.13033
G1 X154.355 Y94.708 F7800.000
G1 F787.500
G1 X154.525 Y95.182 E2.13472
G1 X154.581 Y95.633 E2.13868
G1 X154.547 Y96.086 E2.14265
G1 X154.424 Y96.524 E2.14662
G1 X154.218 Y96.927 E2.15056
G1 X154.007 Y97.204 E2.15360
G1 X153.677 Y97.510 E2.15753
G1 X153.289 Y97.747 E2.16149
G1 X152.862 Y97.902 E2.16546
G1 X152.413 Y97.970 E2.16943
G1 X151.958 Y97.947 E2.17339
G1 X151.518 Y97.835 E2.17736
G1 X151.108 Y97.638 E2.18133
G1 X150.746 Y97.364 E2.18529
G1 X150.445 Y97.023 E2.18926
G1 X150.218 Y96.629 E2.19323
G1 X150.073 Y96.198 E2.19720
G1 X150.016 Y95.747 E2.20116
G1 X150.050 Y95.294 E2.20513
G1 X150.174 Y94.856 E2.20910
G1 X150.381 Y94.451 E2.21306
G1 X150.664 Y94.096 E2.21703
G1 X151.013 Y93.804 E2.22100
G1 X151.412 Y93.586 E2.22496
G1 X151.844 Y93.453 E2.22891
G1 X152.189 Y93.410 E2.23195
G1 X152.639 Y93.432 E2.23587
G1 X153.080 Y93.545 E2.23984
G1 X153.489 Y93.742 E2.24381
G1 X153.852 Y94.016 E2.24777
G1 X154.152 Y94.357 E2.25174
G1 X154.325 Y94.656 E2.25475
G1 X154.232 Y94.710 F7800.000
G1 F787.500
